img/none.svg

<svg width="16" height="16" viewBox="0 0 16 16" fill="none" xmlns="http://www.w3.org/2000/svg">
<path d="M8 0C3.58897 0 0 3.58897 0 8C0 12.411 3.58897 16 8 16C12.411 16 16 12.411 16 8C16 3.58897 12.411 0 8 0ZM8 15.4483C3.89241 15.4483 0.551724 12.1076 0.551724 8C0.551724 3.89241 3.89241 0.551724 8 0.551724C12.1076 0.551724 15.4483 3.89241 15.4483 8C15.4483 12.1076 12.1076 15.4483 8 15.4483Z" fill="#A5A5A5"/>
<path d="M8.29154 8.00016L10.6059 5.68581C10.6251 5.66664 10.6403 5.64389 10.6506 5.61885C10.661 5.59381 10.6663 5.56698 10.6663 5.53987C10.6663 5.51277 10.661 5.48594 10.6506 5.4609C10.6403 5.43586 10.6251 5.41311 10.6059 5.39394C10.5867 5.37478 10.564 5.35958 10.5389 5.34921C10.5139 5.33883 10.4871 5.3335 10.46 5.3335C10.4329 5.3335 10.406 5.33883 10.381 5.34921C10.3559 5.35958 10.3332 5.37478 10.314 5.39394L7.99967 7.7083L5.68532 5.39394C5.64662 5.35524 5.59412 5.3335 5.53939 5.3335C5.48465 5.3335 5.43216 5.35524 5.39345 5.39394C5.35475 5.43265 5.33301 5.48514 5.33301 5.53987C5.33301 5.59461 5.35475 5.6471 5.39345 5.68581L7.70781 8.00016L5.39345 10.3145C5.35475 10.3532 5.33301 10.4057 5.33301 10.4605C5.33301 10.5152 5.35475 10.5677 5.39345 10.6064C5.43216 10.6451 5.48465 10.6668 5.53939 10.6668C5.59412 10.6668 5.64662 10.6451 5.68532 10.6064L7.99967 8.29203L10.314 10.6064C10.3332 10.6255 10.3559 10.6407 10.381 10.6511C10.406 10.6615 10.4329 10.6668 10.46 10.6668C10.4871 10.6668 10.5139 10.6615 10.5389 10.6511C10.564 10.6407 10.5867 10.6255 10.6059 10.6064C10.6251 10.5872 10.6403 10.5645 10.6506 10.5394C10.661 10.5144 10.6663 10.4876 10.6663 10.4605C10.6663 10.4333 10.661 10.4065 10.6506 10.3815C10.6403 10.3564 10.6251 10.3337 10.6059 10.3145L8.29154 8.00016Z" fill="#A5A5A5"/>
</svg>

<svg width="16" height="16" fill="none" xmlns="http://www.w3.org/2000/svg"><path d="M8 0C3.589 0 0 3.589 0 8s3.589 8 8 8 8-3.589 8-8-3.589-8-8-8Zm0 15.448C3.892 15.448.552 12.108.552 8 .552 3.892 3.892.552 8 .552c4.108 0 7.448 3.34 7.448 7.448 0 4.108-3.34 7.448-7.448 7.448Z" fill="#A5A5A5"/><path d="m8.292 8 2.314-2.314a.205.205 0 0 0 .045-.225.205.205 0 0 0-.191-.128.206.206 0 0 0-.146.06L8 7.709 5.685 5.394a.206.206 0 0 0-.292.292L7.708 8l-2.315 2.315a.206.206 0 0 0 .292.291L8 8.292l2.314 2.314a.208.208 0 0 0 .292 0 .205.205 0 0 0 .045-.224.205.205 0 0 0-.045-.067L8.292 8Z" fill="#A5A5A5"/></svg>
